public/images/icons/logo.svg

<?xml version="1.0" encoding="UTF-8"?>
<svg id="Layer_1" data-name="Layer 1" xmlns="http://www.w3.org/2000/svg" viewBox="0 0 1051.9 692.9">
  <defs>
    <style>
      .cls-1 {
        fill: #2e4757;
      }

      .cls-2 {
        fill: #affdf2;
      }
    </style>
  </defs>
  <g id="Layer_4" data-name="Layer 4">
    <path class="cls-1" d="M821.6,182.9h138.8L1051.9,0H240.3l-84.6,255H91.4L0,437.9H95L10.4,692.9H199l32-96.4v96.4H821.6v-255h86.8l91.4-182.9h-178.2v-72.1Zm-348.5,72.1h-59.7v-72.1h95.8l-36.1,72.1Zm166.1,255.5h-96.4v-.6l36-72h60.3v72.6h.1Z"/>
  </g>
  <g id="Layer_1-2" data-name="Layer 1">
    <polygon class="cls-2" points="780.8 142.6 780.8 295.5 933.7 295.5 882.8 397.4 780.8 397.4 780.8 652.3 678.8 652.3 678.8 142.6 602.4 295.5 678.8 295.5 627.9 397.4 551.4 397.4 475 550.3 678.8 550.3 627.9 652.3 271.1 652.3 271.1 346.4 169.1 652.3 67.2 652.3 152.1 397.4 67.2 397.4 118.1 295.5 186.1 295.5 271.1 40.6 373 40.6 373 550.3 449.5 397.4 373 397.4 424 295.5 500.4 295.5 576.9 142.6 373 142.6 424 40.6 984.7 40.6 933.7 142.6 780.8 142.6"/>
  </g>
</svg>

<?xml version="1.0" encoding="utf-8"?>
<!-- Generator: Adobe Illustrator 27.0.1, SVG Export Plug-In . SVG Version: 6.00 Build 0)  -->
<svg version="1.1" xmlns="http://www.w3.org/2000/svg" xmlns:xlink="http://www.w3.org/1999/xlink" x="0px" y="0px"
	 viewBox="0 0 1051.9 692.9" style="enable-background:new 0 0 1051.9 692.9;" xml:space="preserve">
<style type="text/css">
	.st0{fill:#2E4757;}
	.st1{fill:#AFFDF2;}
	.st2{display:none;}
	.st3{display:inline;fill:none;stroke:#3B8BF2;stroke-width:2;stroke-miterlimit:10;}
</style>
<g id="Layer_4">
	<path class="st0" d="M821.6,182.9h138.8L1051.9,0H240.3l-84.6,255H91.4L0,437.9h95l-84.6,255H199l32-96.4v96.4h590.6v-255h86.8
		L999.8,255H821.6V182.9z M473.1,255h-59.7v-72.1h95.8L473.1,255z M639.2,510.5h-96.4v-0.6l36-72h60.3V510.5z"/>
</g>
<g id="Layer_1">
	<polygon class="st1" points="780.8,142.6 780.8,295.5 933.7,295.5 882.8,397.4 780.8,397.4 780.8,652.3 678.8,652.3 678.8,142.6 
		602.4,295.5 678.8,295.5 627.9,397.4 551.4,397.4 475,550.3 678.8,550.3 627.9,652.3 271.1,652.3 271.1,346.4 169.1,652.3 
		67.2,652.3 152.1,397.4 67.2,397.4 118.1,295.5 186.1,295.5 271.1,40.6 373,40.6 373,550.3 449.5,397.4 373,397.4 424,295.5 
		500.4,295.5 576.9,142.6 373,142.6 424,40.6 984.7,40.6 933.7,142.6 	"/>
</g>
<g id="Layer_2" class="st2">
	<polygon class="st3" points="373,652.3 271.1,652.3 271.1,346.4 169.1,652.3 67.2,652.3 152.1,397.4 67.2,397.4 118.1,295.5 
		186.1,295.5 271.1,40.6 373,40.6 373,550.3 	"/>
	<polygon class="st3" points="678.8,40.6 984.7,40.6 933.7,142.6 780.8,142.6 780.8,295.5 933.7,295.5 882.8,397.4 780.8,397.4 
		780.8,652.3 678.8,652.3 678.8,142.6 	"/>
	<polygon class="st3" points="678.8,142.6 602.4,295.5 678.8,295.5 627.9,397.4 551.4,397.4 475,550.3 678.8,550.3 627.9,652.3 
		373,652.3 373,550.3 449.5,397.4 373,397.4 424,295.5 500.4,295.5 576.9,142.6 373,142.6 424,40.6 678.8,40.6 	"/>
	<path class="st3" d="M240.3,0"/>
	<path class="st3" d="M10.4,692.9"/>
</g>
</svg>
